X:2
T:Me a laka va fizia\~ns
R:Chant catholique
C:Traditionnel
S:N°584, Tonoù Breiz-Izel, Polig Monjarret
Q:C3=68
P:CD7
M:6/8
%%MIDI program 109
%%%MIDI gchord fzzcfzc
%%MIDI chordprog 105
%%MIDI bassprog 32
%%MIDI bassvol 127
K:C
P:C
E \
P:D
|: "Am"A2 A (cA)c | "C"e2 d c3 | "Dm"(de)d "F"c2 "G"B |1 "Am"A3-A2 E :|2 "Am"A3-A2 z | "G"(Bc)d "F"c2 B | "Dm"A3 "Em"G3 |
"F"{AB} AAA "Dm"c(Ac) | "Em"B3-B2 E | "Dm"A2 A (cA)c | "Em"e2 d "F"c3 | "Dm"(de)d "F"c2 "G"B | "Am"A3 "F"A2 E ||

